X:165
T:Lord Gordon's reel
R:Reel
O:Ireland
B:O'Neill's 1433
B:Roche 1 n162
S:O'Neill's 1433
S:My arrangement from various sources
Z:Transcription, arrangement, chords:Mike Long
M:C|
L:1/8
K:D
dB|\
"D"AD (3(FED) AD (3(FED)|AD (3(FED) A2GF|\
"Em"EFGA BE~E2|"G"defd B2AB|\
"D"defd "A"efdB|
"D"AFDF A2Bc|"G"dBcA BGAF|"A"EFGA B2|]\
de|\
"D"fd~d2 fdad|fddf a2gf|
"Em"(3(gfe) be gebe|"G"defd B2AB|\
"D"defd "A"efdB|"D"AFDF A2Bc|"G"dBcA BGAF|"A"EFGA B2|]
